; generated by Slic3r 0.9.10b on 2013-08-01 at 15:28:15

; layer_height = 0.4
; perimeters = 3
; top_solid_layers = 3
; bottom_solid_layers = 3
; fill_density = 0.4
; perimeter_speed = 30
; infill_speed = 60
; travel_speed = 130
; nozzle_diameter = 0.5
; filament_diameter = 3
; extrusion_multiplier = 1
; perimeters extrusion width = 0.53mm
; infill extrusion width = 0.53mm
; solid infill extrusion width = 0.53mm
; top infill extrusion width = 0.53mm
; support material extrusion width = 0.53mm
; first layer extrusion width = 0.70mm

G21 ; set units to millimeters
M107
M104 S200 ; set temperature
G28 ; home all axes
G1 Z5 F5000 ; lift nozzle

M109 S200 ; wait for temperature to be reached
G90 ; use absolute coordinates
G92 E0
M82 ; use absolute distances for extrusion
G1 F1800.000 E-1.00000
G92 E0
G1 Z0.350 F7800.000
G1 X94.880 Y58.913
G1 F1800.000 E1.00000
G1 X95.700 Y57.793 F540.000 E1.04516
G1 X96.740 Y56.853 E1.09077
G1 X97.940 Y56.163 E1.13581
G1 X99.270 Y55.733 E1.18129
G1 X100.650 Y55.583 E1.22645
G1 X109.060 Y55.583 E1.50007
G1 X110.400 Y55.723 E1.54390
G1 X111.690 Y56.133 E1.58794
G1 X112.870 Y56.783 E1.63177
G1 X113.900 Y57.673 E1.67606
G1 X114.720 Y58.743 E1.71992
G1 X115.530 Y60.053 E1.77003
G1 X115.870 Y60.673 E1.79304
G1 X116.140 Y61.323 E1.81594
G1 X116.610 Y62.643 E1.86153
G1 X117.100 Y64.193 E1.91442
G1 X121.080 Y77.403 E2.36329
G1 X121.500 Y79.033 E2.41805
G1 X121.670 Y80.033 E2.45106
G1 X121.810 Y81.613 E2.50266
G1 X122.350 Y92.123 E2.84506
G1 X122.450 Y94.843 E2.93361
G1 X122.450 Y95.343 E2.94988
G1 X122.390 Y96.923 E3.00132
G1 X122.290 Y98.233 E3.04407
G1 X121.800 Y102.433 E3.18164
G1 X121.720 Y102.943 E3.19844
G1 X114.430 Y140.213 E4.43401
G1 X114.060 Y141.463 E4.47642
G1 X113.440 Y142.623 E4.51921
G1 X112.620 Y143.633 E4.56154
G1 X111.610 Y144.463 E4.60407
G1 X110.450 Y145.083 E4.64687
G1 X109.200 Y145.463 E4.68937
G1 X107.900 Y145.593 E4.73188
G1 X105.930 Y145.583 E4.79597
G1 X84.300 Y145.123 E5.49987
G1 X83.020 Y144.963 E5.54184
G1 X81.790 Y144.573 E5.58382
G1 X80.670 Y143.953 E5.62547
G1 X79.680 Y143.123 E5.66750
G1 X78.880 Y142.113 E5.70942
G1 X78.280 Y140.973 E5.75134
G1 X77.910 Y139.743 E5.79313
G1 X77.780 Y138.463 E5.83499
G1 X77.780 Y135.833 E5.92055
G1 X77.800 Y135.313 E5.93749
G1 X81.850 Y84.063 E7.61011
G1 X82.090 Y82.313 E7.66758
G1 X82.290 Y81.403 E7.69790
G1 X82.610 Y80.533 E7.72806
G1 X83.200 Y79.223 E7.77480
G1 X83.500 Y78.623 E7.79663
G1 X94.831 Y58.998 E8.53390
G1 F1800.000 E7.53390
G92 E0
G1 X100.660 Y62.246 F7800.000
G1 F1800.000 E1.00000
G1 X109.065 Y62.246 F1080.000 E1.27344
G1 X109.872 Y63.561 E1.32362
G1 X99.968 Y63.561 E1.64583
G1 X100.047 Y64.875 E1.68866
G1 X110.347 Y64.875 E2.02378
G1 X110.756 Y66.189 E2.06856
G1 X100.816 Y66.189 E2.39197
G1 X101.043 Y67.503 E2.43536
G1 X110.410 Y67.503 E2.74011
G1 X109.874 Y68.817 E2.78628
G1 X101.187 Y68.817 E3.06891
G1 X101.506 Y70.131 E3.11291
G1 X109.765 Y70.131 E3.38163
G1 X109.029 Y71.445 E3.43063
G1 X101.802 Y71.445 E3.66577
G1 F1800.000 E2.66577
G92 E0
G1 X98.998 Y72.760 F7800.000
G1 F1800.000 E1.00000
G1 X108.272 Y72.760 F1080.000 E1.30174
G1 X108.852 Y74.074 E1.34847
G1 X95.292 Y74.074 E1.78965
G1 X94.075 Y75.388 E1.84791
G1 X110.877 Y75.388 E2.39456
G1 X112.944 Y76.702 E2.47423
G1 X93.198 Y76.702 E3.11666
G1 X92.682 Y78.016 E3.16260
G1 X114.266 Y78.016 E3.86484
G1 X114.714 Y79.330 E3.91002
G1 X91.538 Y79.330 E4.66405
G1 X90.625 Y80.645 E4.71612
G1 X115.048 Y80.645 E5.51073
G1 X115.162 Y81.959 E5.55365
G1 X95.942 Y81.959 E6.17899
G1 X96.082 Y83.273 E6.22199
G1 X115.103 Y83.273 E6.84085
G1 X114.989 Y84.587 E6.88377
G1 X96.214 Y84.587 E7.49464
G1 X96.349 Y85.901 E7.53763
G1 X110.533 Y85.901 E7.99912
G1 X110.671 Y85.901 F7800.000
G1 X115.274 Y85.901 F1080.000 E8.14888
G1 X115.352 Y87.215 E8.19171
G1 X110.851 Y87.215 E8.33816
G1 X109.746 Y87.215 F7800.000
G1 X96.422 Y87.215 F1080.000 E8.77166
G1 X96.647 Y88.530 E8.81503
G1 X109.233 Y88.530 E9.22454
G1 X108.875 Y89.844 E9.26886
G1 X96.902 Y89.844 E9.65840
G1 X96.690 Y91.158 E9.70171
G1 X109.200 Y91.158 E10.10870
G1 X109.732 Y92.472 E10.15483
G1 X96.434 Y92.472 E10.58746
G1 X96.286 Y93.786 E10.63049
G1 X109.885 Y93.786 E11.07294
G1 X110.047 Y95.100 E11.11602
G1 X96.261 Y95.100 E11.56454
G1 X96.076 Y96.414 E11.60772
G1 X110.368 Y96.414 E12.07271
G1 X110.414 Y97.729 E12.11549
G1 X95.948 Y97.729 E12.58615
G1 X95.941 Y99.043 E12.62891
G1 X110.757 Y99.043 E13.11094
G1 X110.823 Y100.357 E13.15375
G1 X95.924 Y100.357 E13.63851
G1 X95.644 Y101.671 E13.68222
G1 X110.539 Y101.671 E14.16680
G1 X111.601 Y101.671 F7800.000
G1 X115.192 Y101.671 F1080.000 E14.28363
G1 X114.847 Y102.985 E14.32784
G1 X95.243 Y102.985 E14.96564
G1 X94.870 Y104.299 E15.01009
G1 X114.514 Y104.299 E15.64920
G1 X113.930 Y105.614 E15.69598
G1 X94.618 Y105.614 E16.32431
G1 X94.431 Y106.928 E16.36749
G1 X101.942 Y106.928 E16.61184
G1 X102.623 Y106.928 F7800.000
G1 X112.430 Y106.928 F1080.000 E16.93092
G1 X111.444 Y108.242 E16.98438
G1 X102.673 Y108.242 E17.26974
G1 X101.146 Y108.242 F7800.000
G1 X94.228 Y108.242 F1080.000 E17.49483
G1 X94.048 Y109.556 E17.53798
G1 X100.342 Y109.556 E17.74274
G1 X99.538 Y110.870 E17.79285
G1 X93.978 Y110.870 E17.97375
G1 X93.779 Y112.184 E18.01699
G1 X99.047 Y112.184 E18.18839
G1 X98.546 Y113.499 E18.23415
G1 X93.132 Y113.499 E18.41029
G1 X92.483 Y114.813 E18.45798
G1 X97.992 Y114.813 E18.63722
G1 X97.254 Y116.127 E18.68626
G1 X91.454 Y116.127 E18.87496
G1 X90.629 Y117.441 E18.92544
G1 X96.220 Y117.441 E19.10733
G1 X95.949 Y118.755 E19.15099
G1 X90.171 Y118.755 E19.33900
G1 X89.900 Y120.069 E19.38265
G1 X95.657 Y120.069 E19.56995
G1 X95.167 Y121.384 E19.61558
G1 X89.644 Y121.384 E19.79526
G1 X89.329 Y122.698 E19.83923
G1 X94.359 Y122.698 E20.00290
G1 X93.530 Y124.012 E20.05346
G1 X89.125 Y124.012 E20.19679
G1 X89.006 Y125.326 E20.23972
G1 X93.020 Y125.326 E20.37031
G1 X92.382 Y126.640 E20.41783
G1 X88.858 Y126.640 E20.53249
G1 X88.356 Y127.954 E20.57826
G1 X91.752 Y127.954 E20.68875
G1 X91.592 Y129.268 E20.73182
G1 X87.825 Y129.268 E20.85437
G1 X87.118 Y130.583 E20.90293
G1 X91.247 Y130.583 E21.03725
G1 X91.039 Y131.897 E21.08054
G1 X85.564 Y131.897 E21.25867
G1 X84.712 Y133.211 E21.30962
G1 X107.169 Y133.211 E22.04024
G1 X107.391 Y134.525 E22.08360
G1 X106.996 Y134.525 E22.09644
G1 F1800.000 E21.09644
G92 E0
G1 X106.705 Y131.897 F7800.000
G1 F1800.000 E1.00000
G1 X97.441 Y131.897 F1080.000 E1.30141
G1 X98.066 Y130.583 E1.34875
G1 X106.435 Y130.583 E1.62103
G1 X106.310 Y129.268 E1.66398
G1 X98.642 Y129.268 E1.91344
G1 X99.118 Y127.954 E1.95891
G1 X106.628 Y127.954 E2.20325
G1 X108.001 Y126.640 E2.26508
G1 X99.797 Y126.640 E2.53198
G1 X100.154 Y125.326 E2.57629
G1 X107.573 Y125.326 E2.81770
G1 X105.823 Y124.012 E2.88892
G1 X99.878 Y124.012 E3.08233
G1 X99.735 Y122.698 E3.12534
G1 X106.363 Y122.698 E3.34098
G1 X106.910 Y121.384 E3.38728
G1 X100.425 Y121.384 E3.59828
G1 X100.540 Y120.069 E3.64120
G1 X107.354 Y120.069 E3.86288
G1 X107.602 Y118.755 E3.90639
G1 X100.358 Y118.755 E4.14209
G1 X100.501 Y117.441 E4.18510
G1 X107.676 Y117.441 E4.41856
G1 X107.578 Y116.127 E4.46144
G1 X100.499 Y116.127 E4.69176
G1 X100.100 Y114.813 E4.73644
G1 X107.540 Y114.813 E4.97849
G1 X107.684 Y113.499 E5.02151
G1 X100.852 Y113.499 E5.24378
G1 F1800.000 E4.24378
G92 E0
G1 X102.465 Y112.184 F7800.000
G1 F1800.000 E1.00000
G1 X107.748 Y112.184 F1080.000 E1.17187
G1 X108.116 Y110.870 E1.21627
G1 X102.466 Y110.870 E1.40009
G1 X102.580 Y109.556 E1.44301
G1 X108.692 Y109.556 E1.64185
G1 F1800.000 E0.64185
G92 E0
G1 X112.224 Y100.357 F7800.000
G1 F1800.000 E1.00000
G1 X115.165 Y100.357 F1080.000 E1.09568
G1 X115.403 Y99.043 E1.13913
G1 X111.981 Y99.043 E1.25045
G1 X111.767 Y97.729 E1.29377
G1 X115.651 Y97.729 E1.42015
G1 X115.760 Y96.414 E1.46305
G1 X111.528 Y96.414 E1.60073
G1 X111.556 Y95.100 E1.64349
G1 X115.810 Y95.100 E1.78189
G1 X115.720 Y93.786 E1.82475
G1 X111.628 Y93.786 E1.95786
G1 X111.878 Y92.472 E2.00138
G1 X115.708 Y92.472 E2.12599
G1 X115.588 Y91.158 E2.16893
G1 X111.663 Y91.158 E2.29660
G1 X111.258 Y89.844 E2.34134
G1 X115.516 Y89.844 E2.47987
G1 X115.435 Y88.530 E2.52271
G1 X111.011 Y88.530 E2.66663
G1 F1800.000 E1.66663
G92 E0
G1 X95.780 Y81.959 F7800.000
G1 F1800.000 E1.00000
G1 X89.279 Y81.959 F1080.000 E1.21150
G1 X88.683 Y83.273 E1.25844
G1 X94.739 Y83.273 E1.45546
G1 X93.882 Y84.587 E1.50649
G1 X88.499 Y84.587 E1.68164
G1 X88.952 Y85.901 E1.72686
G1 X92.122 Y85.901 E1.83000
G1 F1800.000 E0.83000
G92 E0
G1 X97.964 Y72.760 F7800.000
G1 F1800.000 E1.00000
G1 X98.739 Y72.760 F1080.000 E1.02520
G1 F1800.000 E0.02520
G92 E0
G1 X103.350 Y134.525 F7800.000
G1 F1800.000 E1.00000
G1 X84.625 Y134.525 F1080.000 E1.60923
G1 X84.441 Y135.839 E1.65240
G1 X103.044 Y135.839 E2.25768
G1 X103.969 Y135.839 F7800.000
G1 X107.482 Y135.839 F1080.000 E2.37197
G1 X107.527 Y137.153 E2.41475
G1 X84.487 Y137.153 E3.16437
G1 X84.440 Y138.468 E3.20715
G1 X99.890 Y138.468 E3.70980
G1 X106.262 Y138.691 F7800.000
G1 X107.742 Y138.555 F540.000 E3.75814
G1 X106.262 Y138.691 F7800.000
G1 X106.202 Y138.659 F540.000 E3.76036
G1 X106.202 Y138.659 F7800.000
G1 X104.764 Y138.667 F540.000 E3.80715
G1 X104.764 Y138.667 F7800.000
G1 X103.459 Y138.645 F540.000 E3.84962
G1 X103.459 Y138.645 F7800.000
G1 X102.162 Y138.633 F540.000 E3.89179
G1 X102.162 Y138.633 F7800.000
G1 X102.091 Y138.583 F540.000 E3.89465
G1 X102.091 Y138.583 F7800.000
G1 X101.910 Y138.643 F540.000 E3.90085
G1 F1800.000 E2.90085
G92 E0
G1 X104.272 Y134.760 F7800.000
G1 F1800.000 E1.00000
G1 X104.335 Y134.729 F540.000 E1.00227
G1 X104.335 Y134.729 F7800.000
G1 X104.377 Y134.736 F540.000 E1.00367
G1 X104.377 Y134.736 F7800.000
G1 X104.625 Y134.659 F540.000 E1.01209
G1 X104.625 Y134.659 F7800.000
G1 X105.293 Y134.680 F540.000 E1.03384
M106 S255
G1 F1800.000 E0.03384
G92 E0
G1 Z0.650 F7800.000
G1 X99.700 Y134.207
G1 F1800.000 E1.00000
G1 X99.700 Y133.769 F1410.886 E1.00966
G1 F1800.000 E0.00966
G92 E0
G1 X87.200 Y137.884 F7800.000
G1 F1800.000 E1.00000
G1 X87.200 Y138.740 F1410.886 E1.01888
G1 X86.681 Y138.727 E1.03034
G1 X86.681 Y137.838 E1.04995
G1 F1800.000 E0.04995
G92 E0
G1 Z0.750 F7800.000
G1 X87.200 Y137.801
G1 F1800.000 E1.00000
G1 X87.200 Y135.898 F1410.886 E1.05595
G1 X89.181 Y134.755 E1.12319
G1 X89.181 Y131.568 E1.21690
G1 X87.456 Y130.573 E1.27546
G1 X87.414 Y130.624 F7800.000
G1 X87.074 Y131.056 F1410.886 E1.29163
G1 X86.108 Y131.664 E1.32518
G1 X85.508 Y132.367 E1.35237
G1 X85.502 Y132.315 E1.35390
G1 X85.486 Y132.396 E1.35632
G1 X85.368 Y132.486 E1.36068
G1 X85.333 Y132.600 E1.36419
G1 X85.273 Y132.645 E1.36640
G1 X85.259 Y132.699 E1.36805
G1 X85.060 Y132.865 E1.37565
G1 X84.835 Y133.931 E1.40769
G1 X85.010 Y133.993 E1.41315
G1 X84.768 Y134.565 E1.43143
G1 X84.927 Y134.697 E1.43750
G1 X84.814 Y134.821 E1.44244
G1 X86.681 Y135.898 E1.50583
G1 X86.681 Y138.727 E1.58901
G1 X87.200 Y138.740 E1.60430
G1 X87.200 Y137.884 E1.62947
G1 F1800.000 E0.62947
G92 E0
G1 X91.681 Y137.508 F7800.000
G1 F1800.000 E1.00000
G1 X91.681 Y135.898 F1410.886 E1.04733
G1 X89.700 Y134.755 E1.11458
G1 X89.700 Y131.568 E1.20828
G1 X91.249 Y130.674 E1.26087
G1 F1800.000 E0.26087
G92 E0
G1 X91.681 Y128.699 F7800.000
G1 F1800.000 E1.00000
G1 X91.681 Y127.238 F1410.886 E1.04296
G1 X89.700 Y126.095 E1.11020
G1 X89.700 Y122.908 E1.20391
G1 X91.681 Y121.765 E1.27115
G1 X91.681 Y118.578 E1.36486
G1 X90.661 Y117.989 E1.39949
G1 X90.829 Y117.685 E1.40971
G1 X90.919 Y117.390 E1.41880
G1 X91.423 Y116.610 E1.44609
G1 X91.583 Y116.426 E1.45327
G1 X91.731 Y116.174 E1.46183
G1 X91.720 Y116.158 E1.46240
G1 X92.098 Y115.754 E1.47867
G1 X92.335 Y115.407 E1.49105
G1 X92.643 Y115.046 E1.50499
G1 X93.079 Y114.384 E1.52830
G1 X93.318 Y113.750 F7800.000
G1 X94.181 Y114.248 F1410.886 E1.55759
G1 X94.181 Y117.435 E1.65130
G1 X92.200 Y118.578 E1.71854
G1 X92.200 Y121.765 E1.81225
G1 X94.174 Y122.904 E1.87927
G1 X96.061 Y118.220 F7800.000
G1 X94.700 Y117.435 F1410.886 E1.92547
G1 X94.700 Y114.248 E2.01918
G1 X96.681 Y113.104 E2.08642
G1 X96.681 Y109.918 E2.18013
G1 X94.700 Y108.774 E2.24737
G1 X94.700 Y106.894 E2.30265
G1 X94.897 Y105.474 E2.34481
G1 X96.681 Y104.444 E2.40538
G1 X96.681 Y101.257 E2.49909
G1 X96.107 Y100.927 E2.51855
G1 X96.179 Y100.579 E2.52900
G1 X96.212 Y99.585 E2.55824
G1 X96.210 Y97.539 E2.61840
G1 X96.408 Y95.941 E2.66573
G1 X96.681 Y95.784 E2.67499
G1 X96.681 Y92.631 E2.76769
G1 X96.720 Y92.280 E2.77808
G1 X97.185 Y90.096 E2.84374
G1 X97.120 Y89.260 E2.86840
G1 X97.054 Y88.948 E2.87780
G1 X96.902 Y88.468 E2.89259
G1 X96.799 Y87.962 E2.90776
G1 X96.674 Y87.127 E2.93258
G1 X96.688 Y86.641 E2.94690
G1 X96.681 Y83.937 E3.02641
G1 X96.450 Y83.804 E3.03425
G1 X96.445 Y83.670 E3.03818
G1 X96.349 Y83.286 E3.04983
G1 X96.247 Y82.590 E3.07051
G1 X96.144 Y81.043 E3.11611
G1 X95.314 Y82.123 E3.15618
G1 X94.928 Y82.522 E3.17250
G1 X94.713 Y82.801 E3.18285
G1 X94.700 Y82.794 E3.18330
G1 X94.700 Y79.607 E3.27701
G1 X96.681 Y78.463 E3.34425
G1 X96.681 Y75.277 E3.43796
G1 X95.269 Y74.461 E3.48590
G1 X95.937 Y73.815 E3.51324
G1 X97.472 Y73.113 E3.56288
G1 X97.469 Y73.077 E3.56393
G1 X97.681 Y73.037 E3.57026
G1 X98.235 Y72.994 E3.58662
G1 X98.550 Y72.995 E3.59587
G1 X98.926 Y73.056 E3.60707
G1 X99.177 Y72.979 E3.61480
G1 X99.181 Y72.977 F7800.000
G1 X99.181 Y74.133 F1410.886 E3.64880
G1 X97.200 Y75.277 E3.71604
G1 X97.200 Y78.463 E3.80975
G1 X99.181 Y79.607 E3.87699
G1 X99.181 Y82.794 E3.97070
G1 X97.200 Y83.937 E4.03794
G1 X97.200 Y87.124 E4.13165
G1 X99.181 Y88.267 E4.19889
G1 X99.181 Y91.454 E4.29260
G1 X97.200 Y92.597 E4.35984
G1 X97.200 Y95.784 E4.45355
G1 X99.181 Y96.927 E4.52079
G1 X99.181 Y100.114 E4.61450
G1 X97.200 Y101.257 E4.68174
G1 X97.200 Y104.444 E4.77545
G1 X99.181 Y105.588 E4.84269
G1 X99.181 Y108.774 E4.93640
G1 X97.200 Y109.918 E5.00364
G1 X97.200 Y113.104 E5.09735
G1 X98.409 Y113.802 E5.13840
G1 F1800.000 E4.13840
G92 E0
G1 X100.787 Y113.620 F7800.000
G1 F1800.000 E1.00000
G1 X101.681 Y113.104 F1410.886 E1.03033
G1 X101.681 Y112.869 E1.03725
G1 X102.363 Y113.199 F7800.000
G1 X104.181 Y114.248 F1410.886 E1.09896
G1 X104.181 Y117.435 E1.19266
G1 X102.200 Y118.578 E1.25991
G1 X102.200 Y121.765 E1.35361
G1 X104.181 Y122.908 E1.42085
G1 X104.181 Y126.095 E1.51456
G1 X102.200 Y127.238 E1.58180
G1 X102.200 Y130.425 E1.67551
G1 X104.181 Y131.568 E1.74275
G1 X104.181 Y133.213 E1.79110
G1 X105.266 Y133.382 F7800.000
G1 X104.769 Y133.216 F1410.886 E1.80651
G1 X104.700 Y133.243 E1.80868
G1 X104.700 Y131.568 E1.85792
G1 X106.191 Y130.708 F7800.000
G1 X106.241 Y130.983 F1410.886 E1.86614
G1 X106.310 Y130.990 E1.86817
G1 X106.304 Y131.247 E1.87573
G1 X106.443 Y131.826 E1.89325
G1 X106.431 Y131.831 E1.89364
G1 X106.463 Y132.055 E1.90030
G1 X106.576 Y132.547 E1.91514
G1 X106.832 Y133.137 E1.93403
G1 X106.859 Y133.178 E1.93550
G1 X106.879 Y133.174 E1.93609
G1 X106.984 Y133.483 E1.94568
G1 X107.101 Y133.666 E1.95208
G1 X107.112 Y133.736 E1.95415
G1 X107.216 Y133.987 E1.96214
G1 X107.160 Y134.315 E1.97192
G1 X107.045 Y134.254 E1.97575
G1 X107.219 Y135.784 F7800.000
G1 X107.171 Y136.043 F1410.886 E1.98350
G1 X107.200 Y136.046 E1.98438
G1 X107.200 Y137.354 E2.02287
G1 F1800.000 E1.02287
G92 E0
G1 X102.200 Y137.364 F7800.000
G1 F1800.000 E1.00000
G1 X102.200 Y136.688 F1410.886 E1.01988
G1 X101.681 Y136.475 F7800.000
G1 X101.681 Y137.432 F1410.886 E1.04804
G1 X102.160 Y137.412 E1.06215
G1 X101.451 Y135.766 F7800.000
G1 X99.700 Y134.755 F1410.886 E1.12161
G1 X99.700 Y131.568 E1.21532
G1 X101.681 Y130.425 E1.28256
G1 X101.681 Y127.238 E1.37627
G1 X99.978 Y126.255 E1.43407
G1 F1800.000 E0.43407
G92 E0
G1 X99.700 Y123.773 F7800.000
G1 F1800.000 E1.00000
G1 X99.700 Y122.908 F1410.886 E1.02542
G1 X101.681 Y121.765 E1.09266
G1 X101.681 Y118.578 E1.18637
G1 X100.465 Y117.876 E1.22765
G1 F1800.000 E0.22765
G92 E0
G1 X104.700 Y122.908 F7800.000
G1 F1800.000 E1.00000
G1 X104.700 Y126.095 F1410.886 E1.09371
G1 X106.681 Y127.238 E1.16095
G1 X106.681 Y127.468 E1.16771
G1 X107.037 Y127.173 E1.18131
G1 X107.293 Y127.005 E1.19031
G1 X107.774 Y126.784 E1.20588
G1 X107.702 Y126.565 E1.21268
G1 X107.672 Y126.283 E1.22100
G1 X107.633 Y126.203 E1.22362
G1 X107.633 Y126.130 E1.22579
G1 X107.565 Y125.986 E1.23045
